svg/github.svg

<svg xmlns="http://www.w3.org/2000/svg"  viewBox="0 0 48 48" width="96px" height="96px"><linearGradient id="rL2wppHyxHVbobwndsT6Ca" x1="4" x2="44" y1="23.508" y2="23.508" gradientUnits="userSpaceOnUse"><stop offset="0" stop-color="#4c4c4c"/><stop offset="1" stop-color="#343434"/></linearGradient><path fill="url(#rL2wppHyxHVbobwndsT6Ca)" d="M24,4C12.954,4,4,12.954,4,24c0,8.887,5.801,16.411,13.82,19.016h12.36	C38.199,40.411,44,32.887,44,24C44,12.954,35.046,4,24,4z"/><path d="M30.01,41.996L30,36.198c0-0.939-0.22-1.856-0.642-2.687c5.641-1.133,8.386-4.468,8.386-10.177	c0-2.255-0.665-4.246-1.976-5.92c0.1-0.317,0.174-0.645,0.22-0.981c0.188-1.369-0.023-2.264-0.193-2.984l-0.027-0.116	c-0.186-0.796-0.409-1.364-0.418-1.388l-0.111-0.282l-0.111-0.282l-0.302-0.032l-0.303-0.032c0,0-0.199-0.021-0.501-0.021	c-0.419,0-1.04,0.042-1.627,0.241l-0.196,0.066c-0.74,0.249-1.439,0.485-2.417,1.069c-0.286,0.171-0.599,0.366-0.934,0.584	C27.334,12.881,25.705,12.69,24,12.69c-1.722,0-3.365,0.192-4.889,0.571c-0.339-0.22-0.654-0.417-0.942-0.589	c-0.978-0.584-1.677-0.819-2.417-1.069l-0.196-0.066c-0.585-0.199-1.207-0.241-1.626-0.241c-0.302,0-0.501,0.021-0.501,0.021	l-0.302,0.032l-0.3,0.031l-0.112,0.281l-0.113,0.283c-0.01,0.026-0.233,0.594-0.419,1.391l-0.027,0.115	c-0.17,0.719-0.381,1.615-0.193,2.983c0.048,0.346,0.125,0.685,0.23,1.011c-1.285,1.666-1.936,3.646-1.936,5.89	c0,5.695,2.748,9.028,8.397,10.17c-0.194,0.388-0.345,0.798-0.452,1.224c-0.197,0.067-0.378,0.112-0.538,0.137	c-0.238,0.036-0.487,0.054-0.739,0.054c-0.686,0-1.225-0.134-1.435-0.259c-0.313-0.186-0.872-0.727-1.414-1.518	c-0.463-0.675-1.185-1.558-1.992-1.927c-0.698-0.319-1.437-0.502-2.029-0.502c-0.138,0-0.265,0.01-0.376,0.028	c-0.517,0.082-0.949,0.366-1.184,0.78c-0.203,0.357-0.235,0.773-0.088,1.141c0.219,0.548,0.851,0.985,1.343,1.255	c0.242,0.133,0.765,0.619,1.07,1.109c0.229,0.368,0.335,0.63,0.482,0.992c0.087,0.215,0.183,0.449,0.313,0.732	c0.47,1.022,1.937,1.924,2.103,2.023c0.806,0.483,2.161,0.638,3.157,0.683l0.123,0.003c0,0,0.001,0,0.001,0	c0.24,0,0.57-0.023,1.004-0.071v2.613c0.002,0.529-0.537,0.649-1.25,0.638l0.547,0.184C19.395,43.572,21.645,44,24,44	c2.355,0,4.605-0.428,6.703-1.176l0.703-0.262C30.695,42.538,30.016,42.422,30.01,41.996z" opacity=".05"/><path d="M30.781,42.797c-0.406,0.047-1.281-0.109-1.281-0.795v-5.804c0-1.094-0.328-2.151-0.936-3.052	c5.915-0.957,8.679-4.093,8.679-9.812c0-2.237-0.686-4.194-2.039-5.822c0.137-0.365,0.233-0.75,0.288-1.147	c0.175-1.276-0.016-2.086-0.184-2.801l-0.027-0.116c-0.178-0.761-0.388-1.297-0.397-1.319l-0.111-0.282l-0.303-0.032	c0,0-0.178-0.019-0.449-0.019c-0.381,0-0.944,0.037-1.466,0.215l-0.196,0.066c-0.714,0.241-1.389,0.468-2.321,1.024	c-0.332,0.198-0.702,0.431-1.101,0.694C27.404,13.394,25.745,13.19,24,13.19c-1.762,0-3.435,0.205-4.979,0.61	c-0.403-0.265-0.775-0.499-1.109-0.699c-0.932-0.556-1.607-0.784-2.321-1.024l-0.196-0.066c-0.521-0.177-1.085-0.215-1.466-0.215	c-0.271,0-0.449,0.019-0.449,0.019l-0.302,0.032l-0.113,0.283c-0.009,0.022-0.219,0.558-0.397,1.319l-0.027,0.116	c-0.169,0.715-0.36,1.524-0.184,2.8c0.056,0.407,0.156,0.801,0.298,1.174c-1.327,1.62-1.999,3.567-1.999,5.795	c0,5.703,2.766,8.838,8.686,9.806c-0.395,0.59-0.671,1.255-0.813,1.964c-0.33,0.13-0.629,0.216-0.891,0.256	c-0.263,0.04-0.537,0.06-0.814,0.06c-0.69,0-1.353-0.129-1.69-0.329c-0.44-0.261-1.057-0.914-1.572-1.665	c-0.35-0.51-1.047-1.417-1.788-1.755c-0.635-0.29-1.298-0.457-1.821-0.457c-0.11,0-0.21,0.008-0.298,0.022	c-0.366,0.058-0.668,0.252-0.828,0.534c-0.128,0.224-0.149,0.483-0.059,0.708c0.179,0.448,0.842,0.85,1.119,1.002	c0.335,0.184,0.919,0.744,1.254,1.284c0.251,0.404,0.37,0.697,0.521,1.067c0.085,0.209,0.178,0.437,0.304,0.712	c0.331,0.719,1.353,1.472,1.905,1.803c0.754,0.452,2.154,0.578,2.922,0.612l0.111,0.002c0.299,0,0.8-0.045,1.495-0.135v3.177	c0,0.779-0.991,0.81-1.234,0.81c-0.031,0,0.503,0.184,0.503,0.184C19.731,43.64,21.822,44,24,44c2.178,0,4.269-0.36,6.231-1.003	C30.231,42.997,30.812,42.793,30.781,42.797z" opacity=".07"/><path fill="#fff" d="M36.744,23.334c0-2.31-0.782-4.226-2.117-5.728c0.145-0.325,0.296-0.761,0.371-1.309	c0.172-1.25-0.031-2-0.203-2.734s-0.375-1.25-0.375-1.25s-0.922-0.094-1.703,0.172s-1.453,0.469-2.422,1.047	c-0.453,0.27-0.909,0.566-1.27,0.806C27.482,13.91,25.785,13.69,24,13.69c-1.801,0-3.513,0.221-5.067,0.652	c-0.362-0.241-0.821-0.539-1.277-0.811c-0.969-0.578-1.641-0.781-2.422-1.047s-1.703-0.172-1.703-0.172s-0.203,0.516-0.375,1.25	s-0.375,1.484-0.203,2.734c0.077,0.562,0.233,1.006,0.382,1.333c-1.31,1.493-2.078,3.397-2.078,5.704	c0,5.983,3.232,8.714,9.121,9.435c-0.687,0.726-1.148,1.656-1.303,2.691c-0.387,0.17-0.833,0.33-1.262,0.394	c-1.104,0.167-2.271,0-2.833-0.333s-1.229-1.083-1.729-1.813c-0.422-0.616-1.031-1.331-1.583-1.583	c-0.729-0.333-1.438-0.458-1.833-0.396c-0.396,0.063-0.583,0.354-0.5,0.563c0.083,0.208,0.479,0.521,0.896,0.75	c0.417,0.229,1.063,0.854,1.438,1.458c0.418,0.674,0.5,1.063,0.854,1.833c0.249,0.542,1.101,1.219,1.708,1.583	c0.521,0.313,1.562,0.491,2.688,0.542c0.389,0.018,1.308-0.096,2.083-0.206v3.75c0,0.639-0.585,1.125-1.191,1.013	C19.756,43.668,21.833,44,24,44c2.166,0,4.243-0.332,6.19-0.984C29.585,43.127,29,42.641,29,42.002v-5.804	c0-1.329-0.527-2.53-1.373-3.425C33.473,32.071,36.744,29.405,36.744,23.334z M11.239,32.727c-0.154-0.079-0.237-0.225-0.185-0.328	c0.052-0.103,0.22-0.122,0.374-0.043c0.154,0.079,0.237,0.225,0.185,0.328S11.393,32.806,11.239,32.727z M12.451,33.482	c-0.081,0.088-0.255,0.06-0.389-0.062s-0.177-0.293-0.096-0.381c0.081-0.088,0.255-0.06,0.389,0.062S12.532,33.394,12.451,33.482z M13.205,34.732c-0.102,0.072-0.275,0.005-0.386-0.15s-0.118-0.34-0.016-0.412s0.275-0.005,0.386,0.15	C13.299,34.475,13.307,34.66,13.205,34.732z M14.288,35.673c-0.069,0.112-0.265,0.117-0.437,0.012s-0.256-0.281-0.187-0.393	c0.069-0.112,0.265-0.117,0.437-0.012S14.357,35.561,14.288,35.673z M15.312,36.594c-0.213-0.026-0.371-0.159-0.353-0.297	c0.017-0.138,0.204-0.228,0.416-0.202c0.213,0.026,0.371,0.159,0.353,0.297C15.711,36.529,15.525,36.62,15.312,36.594z M16.963,36.833c-0.227-0.013-0.404-0.143-0.395-0.289c0.009-0.146,0.2-0.255,0.427-0.242c0.227,0.013,0.404,0.143,0.395,0.289	C17.381,36.738,17.19,36.846,16.963,36.833z M18.521,36.677c-0.242,0-0.438-0.126-0.438-0.281s0.196-0.281,0.438-0.281	c0.242,0,0.438,0.126,0.438,0.281S18.762,36.677,18.521,36.677z"/></svg>

<svg width="60" height="60" viewBox="0 0 48 48" fill="none" xmlns="http://www.w3.org/2000/svg">
<path d="M24 4C12.954 4 4 12.954 4 24C4 32.887 9.801 40.411 17.82 43.016H30.18C38.199 40.411 44 32.887 44 24C44 12.954 35.046 4 24 4Z" fill="url(#paint0_linear)"/>
<path opacity="0.05" d="M30.01 41.996L30 36.198C30 35.259 29.78 34.342 29.358 33.511C34.999 32.378 37.744 29.043 37.744 23.334C37.744 21.079 37.079 19.088 35.768 17.414C35.868 17.097 35.942 16.769 35.988 16.433C36.176 15.064 35.965 14.169 35.795 13.449L35.768 13.333C35.582 12.537 35.359 11.969 35.35 11.945L35.239 11.663L35.128 11.381L34.826 11.349L34.523 11.317C34.523 11.317 34.324 11.296 34.022 11.296C33.603 11.296 32.982 11.338 32.395 11.537L32.199 11.603C31.459 11.852 30.76 12.088 29.782 12.672C29.496 12.843 29.183 13.038 28.848 13.256C27.334 12.881 25.705 12.69 24 12.69C22.278 12.69 20.635 12.882 19.111 13.261C18.772 13.041 18.457 12.844 18.169 12.672C17.191 12.088 16.492 11.853 15.752 11.603L15.556 11.537C14.971 11.338 14.349 11.296 13.93 11.296C13.628 11.296 13.429 11.317 13.429 11.317L13.127 11.349L12.827 11.38L12.715 11.661L12.602 11.944C12.592 11.97 12.369 12.538 12.183 13.335L12.156 13.45C11.986 14.169 11.775 15.065 11.963 16.433C12.011 16.779 12.088 17.118 12.193 17.444C10.908 19.11 10.257 21.09 10.257 23.334C10.257 29.029 13.005 32.362 18.654 33.504C18.46 33.892 18.309 34.302 18.202 34.728C18.005 34.795 17.824 34.84 17.664 34.865C17.426 34.901 17.177 34.919 16.925 34.919C16.239 34.919 15.7 34.785 15.49 34.66C15.177 34.474 14.618 33.933 14.076 33.142C13.613 32.467 12.891 31.584 12.084 31.215C11.386 30.896 10.647 30.713 10.055 30.713C9.91699 30.713 9.78999 30.723 9.67899 30.741C9.16199 30.823 8.72999 31.107 8.49499 31.521C8.29199 31.878 8.25999 32.294 8.40699 32.662C8.62599 33.21 9.25799 33.647 9.74999 33.917C9.99199 34.05 10.515 34.536 10.82 35.026C11.049 35.394 11.155 35.656 11.302 36.018C11.389 36.233 11.485 36.467 11.615 36.75C12.085 37.772 13.552 38.674 13.718 38.773C14.524 39.256 15.879 39.411 16.875 39.456L16.998 39.459H16.999C17.239 39.459 17.569 39.436 18.003 39.388V42.001C18.005 42.53 17.466 42.65 16.753 42.639L17.3 42.823C19.395 43.572 21.645 44 24 44C26.355 44 28.605 43.572 30.703 42.824L31.406 42.562C30.695 42.538 30.016 42.422 30.01 41.996Z" fill="black"/>
<path opacity="0.07" d="M30.781 42.797C30.375 42.844 29.5 42.688 29.5 42.002V36.198C29.5 35.104 29.172 34.047 28.564 33.146C34.479 32.189 37.243 29.053 37.243 23.334C37.243 21.097 36.557 19.14 35.204 17.512C35.341 17.147 35.437 16.762 35.492 16.365C35.667 15.089 35.476 14.279 35.308 13.564L35.281 13.448C35.103 12.687 34.893 12.151 34.884 12.129L34.773 11.847L34.47 11.815C34.47 11.815 34.292 11.796 34.021 11.796C33.64 11.796 33.077 11.833 32.555 12.011L32.359 12.077C31.645 12.318 30.97 12.545 30.038 13.101C29.706 13.299 29.336 13.532 28.937 13.795C27.404 13.394 25.745 13.19 24 13.19C22.238 13.19 20.565 13.395 19.021 13.8C18.618 13.535 18.246 13.301 17.912 13.101C16.98 12.545 16.305 12.317 15.591 12.077L15.395 12.011C14.874 11.834 14.31 11.796 13.929 11.796C13.658 11.796 13.48 11.815 13.48 11.815L13.178 11.847L13.065 12.13C13.056 12.152 12.846 12.688 12.668 13.449L12.641 13.565C12.472 14.28 12.281 15.089 12.457 16.365C12.513 16.772 12.613 17.166 12.755 17.539C11.428 19.159 10.756 21.106 10.756 23.334C10.756 29.037 13.522 32.172 19.442 33.14C19.047 33.73 18.771 34.395 18.629 35.104C18.299 35.234 18 35.32 17.738 35.36C17.475 35.4 17.201 35.42 16.924 35.42C16.234 35.42 15.571 35.291 15.234 35.091C14.794 34.83 14.177 34.177 13.662 33.426C13.312 32.916 12.615 32.009 11.874 31.671C11.239 31.381 10.576 31.214 10.053 31.214C9.94299 31.214 9.84299 31.222 9.75499 31.236C9.38899 31.294 9.08699 31.488 8.92699 31.77C8.79899 31.994 8.77799 32.253 8.86799 32.478C9.04699 32.926 9.70999 33.328 9.98699 33.48C10.322 33.664 10.906 34.224 11.241 34.764C11.492 35.168 11.611 35.461 11.762 35.831C11.847 36.04 11.94 36.268 12.066 36.543C12.397 37.262 13.419 38.015 13.971 38.346C14.725 38.798 16.125 38.924 16.893 38.958L17.004 38.96C17.303 38.96 17.804 38.915 18.499 38.825V42.002C18.499 42.781 17.508 42.812 17.265 42.812C17.234 42.812 17.768 42.996 17.768 42.996C19.731 43.64 21.822 44 24 44C26.178 44 28.269 43.64 30.231 42.997C30.231 42.997 30.812 42.793 30.781 42.797Z" fill="black"/>
<path d="M36.744 23.334C36.744 21.024 35.962 19.108 34.627 17.606C34.772 17.281 34.923 16.845 34.998 16.297C35.17 15.047 34.967 14.297 34.795 13.563C34.623 12.829 34.42 12.313 34.42 12.313C34.42 12.313 33.498 12.219 32.717 12.485C31.936 12.751 31.264 12.954 30.295 13.532C29.842 13.802 29.386 14.098 29.025 14.338C27.482 13.91 25.785 13.69 24 13.69C22.199 13.69 20.487 13.911 18.933 14.342C18.571 14.101 18.112 13.803 17.656 13.531C16.687 12.953 16.015 12.75 15.234 12.484C14.453 12.218 13.531 12.312 13.531 12.312C13.531 12.312 13.328 12.828 13.156 13.562C12.984 14.296 12.781 15.046 12.953 16.296C13.03 16.858 13.186 17.302 13.335 17.629C12.025 19.122 11.257 21.026 11.257 23.333C11.257 29.316 14.489 32.047 20.378 32.768C19.691 33.494 19.23 34.424 19.075 35.459C18.688 35.629 18.242 35.789 17.813 35.853C16.709 36.02 15.542 35.853 14.98 35.52C14.418 35.187 13.751 34.437 13.251 33.707C12.829 33.091 12.22 32.376 11.668 32.124C10.939 31.791 10.23 31.666 9.83501 31.728C9.43901 31.791 9.25201 32.082 9.33501 32.291C9.41801 32.499 9.81401 32.812 10.231 33.041C10.648 33.27 11.294 33.895 11.669 34.499C12.087 35.173 12.169 35.562 12.523 36.332C12.772 36.874 13.624 37.551 14.231 37.915C14.752 38.228 15.793 38.406 16.919 38.457C17.308 38.475 18.227 38.361 19.002 38.251V42.001C19.002 42.64 18.417 43.126 17.811 43.014C19.756 43.668 21.833 44 24 44C26.166 44 28.243 43.668 30.19 43.016C29.585 43.127 29 42.641 29 42.002V36.198C29 34.869 28.473 33.668 27.627 32.773C33.473 32.071 36.744 29.405 36.744 23.334ZM11.239 32.727C11.085 32.648 11.002 32.502 11.054 32.399C11.106 32.296 11.274 32.277 11.428 32.356C11.582 32.435 11.665 32.581 11.613 32.684C11.561 32.787 11.393 32.806 11.239 32.727ZM12.451 33.482C12.37 33.57 12.196 33.542 12.062 33.42C11.928 33.298 11.885 33.127 11.966 33.039C12.047 32.951 12.221 32.979 12.355 33.101C12.489 33.223 12.532 33.394 12.451 33.482ZM13.205 34.732C13.103 34.804 12.93 34.737 12.819 34.582C12.708 34.427 12.701 34.242 12.803 34.17C12.905 34.098 13.078 34.165 13.189 34.32C13.299 34.475 13.307 34.66 13.205 34.732ZM14.288 35.673C14.219 35.785 14.023 35.79 13.851 35.685C13.679 35.58 13.595 35.404 13.664 35.292C13.733 35.18 13.929 35.175 14.101 35.28C14.273 35.385 14.357 35.561 14.288 35.673ZM15.312 36.594C15.099 36.568 14.941 36.435 14.959 36.297C14.976 36.159 15.163 36.069 15.375 36.095C15.588 36.121 15.746 36.254 15.728 36.392C15.711 36.529 15.525 36.62 15.312 36.594ZM16.963 36.833C16.736 36.82 16.559 36.69 16.568 36.544C16.577 36.398 16.768 36.289 16.995 36.302C17.222 36.315 17.399 36.445 17.39 36.591C17.381 36.738 17.19 36.846 16.963 36.833ZM18.521 36.677C18.279 36.677 18.083 36.551 18.083 36.396C18.083 36.241 18.279 36.115 18.521 36.115C18.763 36.115 18.959 36.241 18.959 36.396C18.959 36.551 18.762 36.677 18.521 36.677Z" fill="white"/>
<defs>
<linearGradient id="paint0_linear" x1="4" y1="23.508" x2="44" y2="23.508" gradientUnits="userSpaceOnUse">
<stop stop-color="#4C4C4C"/>
<stop offset="1" stop-color="#343434"/>
</linearGradient>
</defs>
</svg>
